; generated by Slic3r 1.2.9 on 2016-10-31 at 12:05:44

; external perimeters extrusion width = 0.50mm
; perimeters extrusion width = 0.58mm
; infill extrusion width = 0.58mm
; solid infill extrusion width = 0.58mm
; top infill extrusion width = 0.58mm

M107
M104 S205 ; set temperature
G28 ; home all axes
G1 Z5 F5000 ; lift nozzle

M109 S205 ; wait for temperature to be reached
G21 ; set units to millimeters
G90 ; use absolute coordinates
M82 ; use absolute distances for extrusion
G92 E0
G1 Z0.500 F7800.000
G1 X0.173 Y0.198 F7800.000
G1 X1.412 Y-0.885 E0.30539 F1800.000
G1 X3.587 Y-1.746 E0.73957
G1 X5.000 Y-1.893 E1.00311
G1 X10.000 Y-1.893 E1.93097
G1 X12.306 Y-1.496 E2.36515
G1 X14.874 Y0.126 E2.92878 F1800.000
G1 X34.874 Y20.126 E8.17751
G1 X36.223 Y22.037 E8.61169
G1 X36.893 Y25.000 E9.17532
G1 X36.893 Y30.000 E10.10318
G1 X36.496 Y32.306 E10.53736
G1 X35.350 Y34.346 E10.97153
G1 X33.588 Y35.885 E11.40571
G1 X31.413 Y36.746 E11.83989
G1 X30.000 Y36.893 E12.10344
G1 X5.000 Y36.893 E16.74270
G1 X2.694 Y36.496 E17.17688
G1 X0.654 Y35.350 E17.61106
G1 X-0.885 Y33.588 E18.04524
G1 X-1.746 Y31.413 E18.47942
G1 X-1.893 Y30.000 E18.74296
G1 X-1.893 Y5.000 E23.38223
G1 X-1.496 Y2.694 E23.81641
G1 X-0.350 Y0.654 E24.25058
G1 X0.116 Y0.247 E24.36546
G1 E22.36546 F2400.00000
G92 E0
G1 X12.715 Y17.285 F7800.000
G1 E2.00000 F2400.00000
G1 X17.715 Y17.285 E2.92785 F1800.000
G1 X17.715 Y22.715 E3.93535
G1 X7.285 Y22.715 E5.87071
G1 X7.285 Y12.285 E7.80606
G1 X12.715 Y12.285 E8.81356
G1 X12.715 Y17.210 E9.72749
G1 X13.607 Y16.393 F7800.000
G1 X18.607 Y16.393 E10.65535 F1800.000
G1 X18.607 Y21.393 E11.58320
G1 X23.607 Y21.393 E12.51105
G1 X23.607 Y26.393 E13.43890
G1 X28.607 Y26.393 E14.36676
G1 X28.607 Y28.607 E14.77772
G1 X21.393 Y28.607 E16.11654
G1 X21.393 Y23.607 E17.04439
G1 X8.607 Y23.607 E19.41699
G1 X8.607 Y28.607 E20.34484
G1 X6.393 Y28.607 E20.75581
G1 X6.393 Y6.393 E24.87818
G1 X8.607 Y6.393 E25.28915
G1 X8.607 Y11.393 E26.21700
G1 X13.607 Y11.393 E27.14485
G1 X13.607 Y16.318 E28.05879
G1 X14.500 Y15.500 F7800.000
G1 X19.500 Y15.500 E28.98664 F1800.000
G1 X19.500 Y20.500 E29.91449
G1 X24.500 Y20.500 E30.84235
G1 X24.500 Y25.500 E31.77020
G1 X29.500 Y25.500 E32.69805
G1 X29.500 Y29.500 E33.44034
G1 X20.500 Y29.500 E35.11047
G1 X20.500 Y24.500 E36.03832
G1 X9.500 Y24.500 E38.07960
G1 X9.500 Y29.500 E39.00745
G1 X5.500 Y29.500 E39.74974
G1 X5.500 Y5.500 E44.20343
G1 X9.500 Y5.500 E44.94571
G1 X9.500 Y10.500 E45.87357
G1 X14.500 Y10.500 E46.80142
G1 X14.500 Y15.425 E47.71535
G1 X14.500 Y16.000 F7800.000
G1 X14.182 Y17.835 F7800.000
G1 X17.165 Y20.818 E48.51063 F1800.000
G1 X17.165 Y19.536 E48.75233
G1 X15.464 Y17.835 E49.20578
G1 X16.746 Y17.835 E49.44749
G1 X17.165 Y18.254 E49.55911
G1 X12.899 Y17.835 F7800.000
G1 X17.165 Y22.101 E50.69621 F1800.000
G1 X15.948 Y22.165 E50.92605
G1 X7.835 Y14.052 E53.08862
G1 X7.835 Y15.335 E53.33033
G1 X14.665 Y22.165 E55.15108
G1 X13.383 Y22.165 E55.39278
G1 X7.835 Y16.617 E56.87170
G1 X7.835 Y17.899 E57.11341
G1 X12.101 Y22.165 E58.25051
G1 X10.818 Y22.165 E58.49222
G1 X7.835 Y19.182 E59.28749
G1 X7.835 Y20.464 E59.52919
G1 X9.536 Y22.165 E59.98264
G1 X8.254 Y22.165 E60.22435
G1 X7.835 Y21.746 E60.33597
G1 X12.165 Y17.101 F7800.000
G1 X7.899 Y12.835 E61.47307 F1800.000
G1 X9.182 Y12.835 E61.71477
G1 X12.165 Y15.818 E62.51004
G1 X12.165 Y14.536 E62.75175
G1 X10.464 Y12.835 E63.20520
G1 X11.746 Y12.835 E63.44691
G1 X12.165 Y13.254 E63.55853
G1 X18.161 Y22.500 F7800.000
G1 X21.839 Y22.500 E65.00566 F1800.000
G1 X22.387 Y22.613 E65.22566
G1 X22.500 Y23.161 E65.44566
G1 X22.500 Y26.839 E66.89280
G1 X22.613 Y27.387 E67.11280
G1 X23.161 Y27.500 E67.33281
G1 X28.161 Y27.500 E69.30004
G1 X22.757 Y27.243 F7800.000
G1 X22.243 Y22.757 F7800.000
G1 X14.000 Y20.000 F7800.000
G1 X9.000 Y21.000 F7800.000
G1 X7.500 Y24.000 F7800.000
G1 X7.500 Y27.500 F7800.000
G1 X7.500 Y28.161 F7800.000
G1 X7.500 Y23.161 E71.26727 F1800.000
G1 X7.500 Y11.839 F7800.000
G1 X7.500 Y6.839 E73.23450 F1800.000
M104 S200 ; set temperature
G1 Z0.900 F7800.000
G1 X13.807 Y16.193 F7800.000
G1 X18.807 Y16.193 E73.64266 F3600.000
G1 X18.807 Y21.193 E74.05082
G1 X23.807 Y21.193 E74.45899
G1 X23.807 Y26.193 E74.86715
G1 X28.807 Y26.193 E75.27531
G1 X28.807 Y28.807 E75.48864
G1 X21.193 Y28.807 E76.11012
G1 X21.193 Y23.807 E76.51829
G1 X8.807 Y23.807 E77.52945
G1 X8.807 Y28.807 E77.93762
G1 X6.193 Y28.807 E78.15094
G1 X6.193 Y6.193 E79.99692
G1 X8.807 Y6.193 E80.21024
G1 X8.807 Y11.193 E80.61841
G1 X13.807 Y11.193 E81.02657
G1 X13.807 Y16.118 E81.42861
G1 X14.297 Y15.703 F7800.000
G1 X19.297 Y15.703 E81.83677 F3600.000
G1 X19.297 Y20.703 E82.24494
G1 X24.297 Y20.703 E82.65310
G1 X24.297 Y25.703 E83.06126
G1 X29.297 Y25.703 E83.46943
G1 X29.297 Y29.297 E83.76289
G1 X20.703 Y29.297 E84.46452
G1 X20.703 Y24.297 E84.87269
G1 X9.297 Y24.297 E85.80371
G1 X9.297 Y29.297 E86.21187
G1 X5.703 Y29.297 E86.50534
G1 X5.703 Y5.703 E88.43146
G1 X9.297 Y5.703 E88.72493
G1 X9.297 Y10.703 E89.13309
G1 X14.297 Y10.703 E89.54125
G1 X14.297 Y15.628 E89.94329
G1 X14.750 Y15.250 F7800.000
G1 X19.750 Y15.250 E90.28767 F1800.000
G1 X19.750 Y20.250 E90.63204
G1 X24.750 Y20.250 E90.97642
G1 X24.750 Y25.250 E91.32079
G1 X29.750 Y25.250 E91.66517
G1 X29.750 Y29.750 E91.97511
G1 X20.250 Y29.750 E92.62942
G1 X20.250 Y24.750 E92.97379
G1 X9.750 Y24.750 E93.69698
G1 X9.750 Y29.750 E94.04136
G1 X5.250 Y29.750 E94.35129
G1 X5.250 Y5.250 E96.03873
G1 X9.750 Y5.250 E96.34867
G1 X9.750 Y10.250 E96.69304
G1 X14.750 Y10.250 E97.03742
G1 X14.750 Y15.175 E97.37663
G1 X14.750 Y15.750 F7800.000
G1 X8.760 Y11.486 F7800.000
G1 X6.486 Y13.760 E97.64226 F1200.000
G1 X6.486 Y14.463 E97.70030
G1 X9.463 Y11.486 E98.04801
G1 X10.165 Y11.486 E98.10605
G1 X6.486 Y15.165 E98.53584
G1 X6.486 Y15.868 E98.59388
G1 X10.868 Y11.486 E99.10576
G1 X11.570 Y11.486 E99.16380
G1 X6.486 Y16.570 E99.75775
G1 X6.486 Y17.273 E99.81579
G1 X12.273 Y11.486 E100.49183
G1 X12.975 Y11.486 E100.54987
G1 X6.486 Y17.975 E101.30798
G1 X6.486 Y18.678 E101.36602
G1 X13.514 Y11.651 E102.18701
G1 X13.514 Y12.353 E102.24505
G1 X6.486 Y19.380 E103.06604
G1 X6.486 Y20.083 E103.12408
G1 X13.514 Y13.056 E103.94507
G1 X13.514 Y13.758 E104.00311
G1 X6.486 Y20.786 E104.82411
G1 X6.486 Y21.488 E104.88215
G1 X13.514 Y14.461 E105.70314
G1 X13.514 Y15.164 E105.76118
G1 X6.486 Y22.191 E106.58217
G1 X6.486 Y22.893 E106.64021
G1 X13.514 Y15.866 E107.46120
G1 X13.596 Y16.486 E107.51290
G1 X6.486 Y23.596 E108.34349
G1 X6.486 Y24.298 E108.40153
G1 X14.298 Y16.486 E109.31420
G1 X15.001 Y16.486 E109.37224
G1 X6.486 Y25.001 E110.36699
G1 X6.486 Y25.703 E110.42503
G1 X15.703 Y16.486 E111.50187
G1 X16.406 Y16.486 E111.55991
G1 X9.379 Y23.514 E112.38090
G1 X10.081 Y23.514 E112.43894
G1 X17.108 Y16.486 E113.25993
G1 X17.811 Y16.486 E113.31797
G1 X10.784 Y23.514 E114.13896
G1 X11.486 Y23.514 E114.19700
G1 X18.493 Y16.506 E115.01566
G1 X18.514 Y17.189 E115.07207
G1 X12.189 Y23.514 E115.81098
G1 X12.892 Y23.514 E115.86902
G1 X18.514 Y17.892 E116.52586
G1 X18.514 Y18.594 E116.58390
G1 X13.594 Y23.514 E117.15865
G1 X14.297 Y23.514 E117.21669
G1 X18.514 Y19.297 E117.70937
G1 X18.514 Y19.999 E117.76741
G1 X14.999 Y23.514 E118.17800
G1 X15.702 Y23.514 E118.23604
G1 X18.514 Y20.702 E118.56456
G1 X18.514 Y21.404 E118.62260
G1 X16.404 Y23.514 E118.86903
G1 X17.107 Y23.514 E118.92707
G1 X19.134 Y21.486 E119.16390
G1 X19.836 Y21.486 E119.22193
G1 X17.809 Y23.514 E119.45876
G1 X18.512 Y23.514 E119.51680
G1 X20.539 Y21.486 E119.75363
G1 X21.241 Y21.486 E119.81166
G1 X19.214 Y23.514 E120.04849
G1 X19.917 Y23.514 E120.10653
G1 X21.944 Y21.486 E120.34336
G1 X22.647 Y21.486 E120.40139
G1 X20.619 Y23.514 E120.63822
G1 X21.322 Y23.514 E120.69626
G1 X23.349 Y21.486 E120.93309
G1 X23.514 Y22.025 E120.97957
G1 X21.486 Y24.052 E121.21639
G1 X21.486 Y24.754 E121.27443
G1 X23.514 Y22.727 E121.51126
G1 X23.514 Y23.430 E121.56930
G1 X21.486 Y25.457 E121.80612
G1 X21.486 Y26.159 E121.86416
G1 X23.514 Y24.132 E122.10099
G1 X23.514 Y24.835 E122.15903
G1 X21.486 Y26.862 E122.39585
G1 X21.486 Y27.564 E122.45389
G1 X23.514 Y25.537 E122.69072
G1 X23.514 Y26.240 E122.74876
G1 X21.486 Y28.267 E122.98558
G1 X21.942 Y28.514 E123.02840
G1 X23.969 Y26.486 E123.26523
G1 X24.672 Y26.486 E123.32327
G1 X22.645 Y28.514 E123.56009
G1 X23.347 Y28.514 E123.61813
G1 X25.374 Y26.486 E123.85496
G1 X26.077 Y26.486 E123.91300
G1 X24.050 Y28.514 E124.14982
G1 X24.753 Y28.514 E124.20786
G1 X26.780 Y26.486 E124.44469
G1 X27.482 Y26.486 E124.50273
G1 X25.455 Y28.514 E124.73956
G1 X26.158 Y28.514 E124.79759
G1 X28.185 Y26.486 E125.03442
G1 X28.514 Y26.860 E125.07554
G1 X26.860 Y28.514 E125.26871
G1 X27.563 Y28.514 E125.32675
G1 X28.514 Y27.563 E125.43784
G1 X28.514 Y28.265 E125.49587
G1 X28.265 Y28.514 E125.52488
G1 X24.000 Y27.500 F7800.000
G1 X22.500 Y24.000 F7800.000
G1 X15.000 Y20.000 F7800.000
G1 X9.000 Y21.000 F7800.000
G1 X7.500 Y24.000 F7800.000
G1 X7.500 Y27.500 F7800.000
G1 X8.514 Y27.892 F7800.000
G1 X7.892 Y28.514 E125.59755 F1200.000
G1 X7.189 Y28.514 E125.65559
G1 X8.514 Y27.189 E125.81034
G1 X8.514 Y26.486 E125.86838
G1 X6.506 Y28.493 E126.10287
G1 X6.486 Y27.811 E126.15928
G1 X8.514 Y25.784 E126.39611
G1 X8.514 Y25.081 E126.45415
G1 X6.486 Y27.108 E126.69097
G1 X6.486 Y26.406 E126.74901
G1 X8.514 Y24.379 E126.98584
G1 X8.514 Y11.031 F7800.000
G1 X6.486 Y13.058 E127.22266 F1200.000
G1 X6.486 Y12.355 E127.28070
G1 X8.514 Y10.328 E127.51753
G1 X8.514 Y9.625 E127.57557
G1 X6.486 Y11.652 E127.81239
G1 X6.486 Y10.950 E127.87043
G1 X8.514 Y8.923 E128.10726
G1 X8.514 Y8.220 E128.16530
G1 X6.486 Y10.247 E128.40212
G1 X6.486 Y9.545 E128.46016
G1 X8.514 Y7.518 E128.69699
G1 X8.514 Y6.815 E128.75503
G1 X6.486 Y8.842 E128.99185
G1 X6.486 Y8.140 E129.04989
G1 X8.140 Y6.486 E129.24305
G1 X7.437 Y6.486 E129.30109
G1 X6.486 Y7.437 E129.41217
G1 X6.486 Y6.735 E129.47021
G1 X6.735 Y6.486 E129.49920
G1 Z1.300 F7800.000
G1 X13.807 Y16.193 F7800.000
G1 X18.807 Y16.193 E129.90737 F3600.000
G1 X18.807 Y21.193 E130.31553
G1 X23.807 Y21.193 E130.72369
G1 X23.807 Y26.193 E131.13186
G1 X28.807 Y26.193 E131.54002
G1 X28.807 Y28.807 E131.75334
G1 X21.193 Y28.807 E132.37483
G1 X21.193 Y23.807 E132.78299
G1 X8.807 Y23.807 E133.79416
G1 X8.807 Y28.807 E134.20232
G1 X6.193 Y28.807 E134.41565
G1 X6.193 Y6.193 E136.26162
G1 X8.807 Y6.193 E136.47495
G1 X8.807 Y11.193 E136.88311
G1 X13.807 Y11.193 E137.29128
G1 X13.807 Y16.118 E137.69332
G1 X14.297 Y15.703 F7800.000
G1 X19.297 Y15.703 E138.10148 F3600.000
G1 X19.297 Y20.703 E138.50964
G1 X24.297 Y20.703 E138.91781
G1 X24.297 Y25.703 E139.32597
G1 X29.297 Y25.703 E139.73413
G1 X29.297 Y29.297 E140.02760
G1 X20.703 Y29.297 E140.72923
G1 X20.703 Y24.297 E141.13739
G1 X9.297 Y24.297 E142.06842
G1 X9.297 Y29.297 E142.47658
G1 X5.703 Y29.297 E142.77005
G1 X5.703 Y5.703 E144.69617
G1 X9.297 Y5.703 E144.98963
G1 X9.297 Y10.703 E145.39780
G1 X14.297 Y10.703 E145.80596
G1 X14.297 Y15.628 E146.20800
G1 X14.750 Y15.250 F7800.000
G1 X19.750 Y15.250 E146.55237 F1800.000
G1 X19.750 Y20.250 E146.89675
G1 X24.750 Y20.250 E147.24112
G1 X24.750 Y25.250 E147.58550
G1 X29.750 Y25.250 E147.92987
G1 X29.750 Y29.750 E148.23981
G1 X20.250 Y29.750 E148.89412
G1 X20.250 Y24.750 E149.23850
G1 X9.750 Y24.750 E149.96169
G1 X9.750 Y29.750 E150.30606
G1 X5.250 Y29.750 E150.61600
G1 X5.250 Y5.250 E152.30343
G1 X9.750 Y5.250 E152.61337
G1 X9.750 Y10.250 E152.95775
G1 X14.750 Y10.250 E153.30212
G1 X14.750 Y15.175 E153.64133
G1 X14.750 Y15.750 F7800.000
G1 X14.696 Y16.486 F7800.000
G1 X18.514 Y20.304 E154.09454 F1200.000
G1 X18.514 Y19.590 E154.15447
G1 X15.410 Y16.486 E154.52293
G1 X16.124 Y16.486 E154.58286
G1 X18.514 Y18.876 E154.86657
G1 X18.514 Y18.162 E154.92650
G1 X16.838 Y16.486 E155.12547
G1 X17.551 Y16.486 E155.18539
G1 X18.514 Y17.449 E155.29961
G1 X18.514 Y16.735 E155.35954
G1 X18.265 Y16.486 E155.38901
G1 X13.982 Y16.486 F7800.000
G1 X18.514 Y21.018 E155.92697 F1200.000
G1 X18.982 Y21.486 F7800.000
G1 X21.009 Y23.514 E156.16761 F1200.000
G1 X20.295 Y23.514 E156.22754
G1 X6.486 Y9.705 E157.86686
G1 X6.486 Y8.991 E157.92679
G1 X8.514 Y11.018 E158.16743
G1 X8.514 Y10.304 E158.22736
G1 X6.486 Y8.277 E158.46800
G1 X6.486 Y7.563 E158.52793
G1 X8.514 Y9.590 E158.76857
G1 X8.514 Y8.876 E158.82850
G1 X6.486 Y6.849 E159.06914
G1 X6.838 Y6.486 E159.11152
G1 X8.514 Y8.162 E159.31049
G1 X8.514 Y7.449 E159.37041
G1 X7.551 Y6.486 E159.48463
G1 X8.265 Y6.486 E159.54456
G1 X8.514 Y6.735 E159.57403
G1 X7.500 Y8.900 F7800.000
G1 X9.000 Y14.000 F7800.000
G1 X10.000 Y15.000 F7800.000
G1 X14.000 Y11.000 F7800.000
G1 X13.265 Y11.486 F7800.000
G1 X13.514 Y11.735 E159.60350 F1200.000
G1 X13.514 Y12.449 E159.66343
G1 X12.551 Y11.486 E159.77765
G1 X11.838 Y11.486 E159.83758
G1 X13.514 Y13.162 E160.03654
G1 X13.514 Y13.876 E160.09647
G1 X11.124 Y11.486 E160.38018
G1 X10.410 Y11.486 E160.44011
G1 X13.514 Y14.590 E160.80857
G1 X13.514 Y15.304 E160.86850
G1 X9.696 Y11.486 E161.32171
G1 X8.982 Y11.486 E161.38164
G1 X13.514 Y16.018 E161.91959
G1 X19.696 Y21.486 F7800.000
G1 X23.514 Y25.304 E162.37280 F1200.000
G1 X23.514 Y26.018 E162.43273
G1 X21.486 Y23.991 E162.67337
G1 X21.486 Y24.705 E162.73330
G1 X25.295 Y28.514 E163.18546
G1 X24.581 Y28.514 E163.24539
G1 X21.486 Y25.419 E163.61280
G1 X21.486 Y26.132 E163.67273
G1 X23.867 Y28.514 E163.95539
G1 X23.154 Y28.514 E164.01532
G1 X21.486 Y26.846 E164.21324
G1 X21.486 Y27.560 E164.27316
G1 X22.440 Y28.514 E164.38633
G1 X21.726 Y28.514 E164.44626
G1 X21.486 Y28.274 E164.47468
G1 X23.982 Y26.486 F7800.000
G1 X26.009 Y28.514 E164.71532 F1200.000
G1 X26.723 Y28.514 E164.77525
G1 X24.696 Y26.486 E165.01589
G1 X25.410 Y26.486 E165.07582
G1 X27.437 Y28.514 E165.31646
G1 X28.151 Y28.514 E165.37639
G1 X26.124 Y26.486 E165.61703
G1 X26.838 Y26.486 E165.67695
G1 X28.514 Y28.162 E165.87592
G1 X28.514 Y27.449 E165.93585
G1 X27.551 Y26.486 E166.05007
G1 X28.265 Y26.486 E166.10999
G1 X28.514 Y26.735 E166.13947
G1 X23.514 Y24.590 F7800.000
G1 X20.410 Y21.486 E166.50793 F1200.000
G1 X21.124 Y21.486 E166.56786
G1 X23.514 Y23.876 E166.85157
G1 X23.514 Y23.162 E166.91150
G1 X21.838 Y21.486 E167.11046
G1 X22.551 Y21.486 E167.17039
G1 X23.514 Y22.449 E167.28461
G1 X23.514 Y21.735 E167.34454
G1 X23.265 Y21.486 E167.37401
G1 X19.581 Y23.514 F7800.000
G1 X6.486 Y10.419 E168.92859 F1200.000
G1 X6.486 Y11.133 E168.98851
G1 X18.867 Y23.514 E170.45834
G1 X18.154 Y23.514 E170.51827
G1 X6.486 Y11.846 E171.90335
G1 X6.486 Y12.560 E171.96328
G1 X17.440 Y23.514 E173.26361
G1 X16.726 Y23.514 E173.32354
G1 X6.486 Y13.274 E174.53913
G1 X6.486 Y13.988 E174.59905
G1 X16.012 Y23.514 E175.72989
G1 X15.298 Y23.514 E175.78982
G1 X6.486 Y14.702 E176.83591
G1 X6.486 Y15.416 E176.89584
G1 X14.584 Y23.514 E177.85718
G1 X13.870 Y23.514 E177.91711
G1 X6.486 Y16.130 E178.79370
G1 X6.486 Y16.843 E178.85363
G1 X13.157 Y23.514 E179.64548
G1 X12.443 Y23.514 E179.70540
G1 X6.486 Y17.557 E180.41250
G1 X6.486 Y18.271 E180.47243
G1 X11.729 Y23.514 E181.09478
G1 X11.015 Y23.514 E181.15471
G1 X6.486 Y18.985 E181.69232
G1 X6.486 Y19.699 E181.75224
G1 X10.301 Y23.514 E182.20510
G1 X9.587 Y23.514 E182.26503
G1 X6.486 Y20.413 E182.63314
G1 X6.486 Y21.127 E182.69306
G1 X8.873 Y23.514 E182.97642
G1 X8.514 Y23.868 F7800.000
G1 X6.486 Y21.840 E183.21707 F1200.000
G1 X6.486 Y22.554 E183.27699
G1 X8.514 Y24.581 E183.51764
G1 X8.514 Y25.295 E183.57756
G1 X6.486 Y23.268 E183.81820
G1 X6.486 Y23.982 E183.87813
G1 X8.514 Y26.009 E184.11877
G1 X8.514 Y26.723 E184.17870
G1 X6.486 Y24.696 E184.41934
G1 X6.486 Y25.410 E184.47927
G1 X8.514 Y27.437 E184.71991
G1 X8.514 Y28.151 E184.77984
G1 X6.486 Y26.124 E185.02048
G1 X6.486 Y26.838 E185.08040
G1 X8.162 Y28.514 E185.27937
G1 X7.449 Y28.514 E185.33929
G1 X6.486 Y27.551 E185.45351
G1 X6.486 Y28.265 E185.51343
G1 X6.735 Y28.514 E185.54290
M106 S242.25
G1 Z1.700 F7800.000
G1 X13.807 Y16.193 F7800.000
G1 X18.807 Y16.193 E185.95107 F3600.000
G1 X18.807 Y21.193 E186.35923
G1 X23.807 Y21.193 E186.76739
G1 X23.807 Y26.193 E187.17556
G1 X28.807 Y26.193 E187.58372
G1 X28.807 Y28.807 E187.79704
G1 X21.193 Y28.807 E188.41853
G1 X21.193 Y23.807 E188.82669
G1 X8.807 Y23.807 E189.83786
