; generated by Slic3r 1.2.9 on 2016-11-08 at 23:10:01

; external perimeters extrusion width = 0.50mm
; perimeters extrusion width = 0.72mm
; infill extrusion width = 0.72mm
; solid infill extrusion width = 0.72mm
; top infill extrusion width = 0.72mm

M107
M104 S200 ; set temperature

M109 S200 ; wait for temperature to be reached
G21 ; set units to millimeters
G90 ; use absolute coordinates
M82 ; use absolute distances for extrusion
G92 E0
G1 E-2.00000 F2400.00000
G92 E0
G1 X8.150 Y9.154 F7800.000
G1 E2.00000 F2400.00000
G1 X9.912 Y7.615 E2.14774 F1761.775
G1 X12.087 Y6.754 E2.29548
G1 X13.500 Y6.607 E2.38516
G1 X21.500 Y6.607 E2.89033
G1 X23.806 Y7.004 E3.03807
G1 X25.846 Y8.150 E3.18581 F1761.775
G1 X27.385 Y9.912 E3.33355
G1 X28.246 Y12.087 E3.48129
G1 X28.393 Y13.500 E3.57097
G1 X28.393 Y21.500 E4.07614
G1 X27.996 Y23.806 E4.22388
G1 X26.850 Y25.846 E4.37162
G1 X25.088 Y27.385 E4.51936
G1 X22.913 Y28.246 E4.66710
G1 X21.500 Y28.393 E4.75678
G1 X13.500 Y28.393 E5.26194
G1 X11.194 Y27.996 E5.40969
G1 X9.154 Y26.850 E5.55743
G1 X7.615 Y25.088 E5.70517
G1 X6.754 Y22.913 E5.85291
G1 X6.607 Y21.500 E5.94259
G1 X6.607 Y13.500 E6.44775
G1 X7.004 Y11.194 E6.59549
G1 X8.113 Y9.220 E6.73850
G1 E4.73850 F2400.00000
G92 E0
G1 X19.215 Y19.215 F7800.000
G1 E2.00000 F2400.00000
G1 X15.785 Y19.215 E2.21654 F1761.775
G1 X15.785 Y15.785 E2.43308
G1 X19.215 Y15.785 E2.64962
G1 X19.215 Y19.140 E2.86142
G1 X20.107 Y20.107 F7800.000
G1 X14.893 Y20.107 E3.19070 F1761.775
G1 X14.893 Y14.893 E3.51998
G1 X20.107 Y14.893 E3.84926
G1 X20.107 Y20.032 E4.17380
G1 X21.000 Y21.000 F7800.000
G1 X14.000 Y21.000 E4.61582 F1761.775
G1 X14.000 Y14.000 E5.05784
G1 X21.000 Y14.000 E5.49985
G1 X21.000 Y20.925 E5.93714
G1 X20.567 Y20.750 F7800.000
G1 X18.665 Y16.754 F7800.000
G1 X18.246 Y16.335 E5.97489 F1761.775
G1 X16.972 Y16.335 E6.05612
G1 X18.665 Y18.028 E6.20876
G1 X18.028 Y18.665 E6.26620
G1 X16.335 Y16.972 E6.41884
G1 X16.335 Y18.246 E6.50008
G1 X16.754 Y18.665 E6.53783
G1 X20.050 Y20.050 F7800.000
G1 X14.950 Y20.050 E6.67952 F900.000
G1 X14.950 Y14.950 E6.82121
G1 X20.050 Y14.950 E6.96290
G1 X20.050 Y19.975 E7.10251
G1 X20.705 Y20.705 F7800.000
G1 X14.295 Y20.705 E7.28056 F900.000
G1 X14.295 Y14.295 E7.45861
G1 X20.705 Y14.295 E7.63667
G1 X20.705 Y20.630 E7.81263
G1 X21.250 Y21.250 F7800.000
G1 X13.750 Y21.250 E7.95130 F900.000
G1 X13.750 Y13.750 E8.08996
G1 X21.250 Y13.750 E8.22862
G1 X21.250 Y21.175 E8.36590
G1 X20.817 Y21.000 F7800.000
G1 X19.335 Y19.653 F7800.000
G1 X19.653 Y19.335 E8.37934 F1200.000
G1 X19.653 Y18.338 E8.40917
G1 X18.338 Y19.653 E8.46481
G1 X17.341 Y19.653 E8.49464
G1 X19.653 Y17.341 E8.59247
G1 X19.653 Y16.344 E8.62231
G1 X16.344 Y19.653 E8.76233
G1 X15.367 Y19.633 E8.79157
G1 X19.633 Y15.367 E8.97210
G1 X18.656 Y15.347 E9.00134
G1 X15.347 Y18.656 E9.14136
G1 X15.347 Y17.659 E9.17120
G1 X17.659 Y15.347 E9.26903
G1 X16.662 Y15.347 E9.29886
G1 X15.347 Y16.662 E9.35450
G1 X15.347 Y15.665 E9.38433
G1 X15.665 Y15.347 E9.39777
G1 X20.050 Y20.050 F7800.000
G1 X14.950 Y20.050 E9.53947 F900.000
G1 X14.950 Y14.950 E9.68116
G1 X20.050 Y14.950 E9.82285
G1 X20.050 Y19.975 E9.96246
G1 X20.705 Y20.705 F7800.000
G1 X14.295 Y20.705 E10.14051 F900.000
G1 X14.295 Y14.295 E10.31856
G1 X20.705 Y14.295 E10.49661
G1 X20.705 Y20.630 E10.67258
G1 X21.250 Y21.250 F7800.000
G1 X13.750 Y21.250 E10.81124 F900.000
G1 X13.750 Y13.750 E10.94991
G1 X21.250 Y13.750 E11.08857
G1 X21.250 Y21.175 E11.22584
G1 X20.817 Y21.000 F7800.000
G1 X19.653 Y15.665 F7800.000
G1 X19.335 Y15.347 E11.23929 F1200.000
G1 X18.338 Y15.347 E11.26912
G1 X19.653 Y16.662 E11.32476
G1 X19.653 Y17.659 E11.35459
G1 X17.341 Y15.347 E11.45242
G1 X16.344 Y15.347 E11.48226
G1 X19.653 Y18.656 E11.62228
G1 X19.633 Y19.633 E11.65152
G1 X15.367 Y15.367 E11.83205
G1 X15.347 Y16.344 E11.86129
G1 X18.656 Y19.653 E12.00131
G1 X17.659 Y19.653 E12.03115
G1 X15.347 Y17.341 E12.12897
G1 X15.347 Y18.338 E12.15881
G1 X16.662 Y19.653 E12.21445
G1 X15.665 Y19.653 E12.24428
G1 X15.347 Y19.335 E12.25772
M106 S247.35
G1 X20.050 Y20.050 F7800.000
G1 X14.950 Y20.050 E12.39941 F900.000
G1 X14.950 Y14.950 E12.54111
G1 X20.050 Y14.950 E12.68280
G1 X20.050 Y19.975 E12.82241
G1 X20.705 Y20.705 F7800.000
G1 X14.295 Y20.705 E13.00046 F900.000
G1 X14.295 Y14.295 E13.17851
G1 X20.705 Y14.295 E13.35656
G1 X20.705 Y20.630 E13.53253
G1 X21.250 Y21.250 F7800.000
G1 X13.750 Y21.250 E13.67119 F900.000
G1 X13.750 Y13.750 E13.80986
G1 X21.250 Y13.750 E13.94852
G1 X21.250 Y21.175 E14.08579
G1 X20.817 Y21.000 F7800.000
G1 X19.335 Y19.653 F7800.000
G1 X19.653 Y19.335 E14.09924 F1200.000
G1 X19.653 Y18.338 E14.12907
G1 X18.338 Y19.653 E14.18471
G1 X17.341 Y19.653 E14.21454
G1 X19.653 Y17.341 E14.31237
G1 X19.653 Y16.344 E14.34220
G1 X16.344 Y19.653 E14.48223
G1 X15.367 Y19.633 E14.51147
G1 X19.633 Y15.367 E14.69199
G1 X18.656 Y15.347 E14.72123
G1 X15.347 Y18.656 E14.86125
G1 X15.347 Y17.659 E14.89109
G1 X17.659 Y15.347 E14.98891
G1 X16.662 Y15.347 E15.01875
G1 X15.347 Y16.662 E15.07438
G1 X15.347 Y15.665 E15.10422
G1 X15.665 Y15.347 E15.11766
G1 X20.050 Y20.050 F7800.000
G1 X14.950 Y20.050 E15.25935 F900.000
G1 X14.950 Y14.950 E15.40105
G1 X20.050 Y14.950 E15.54274
G1 X20.050 Y19.975 E15.68234
G1 X20.705 Y20.705 F7800.000
G1 X14.295 Y20.705 E15.86040 F900.000
G1 X14.295 Y14.295 E16.03845
G1 X20.705 Y14.295 E16.21650
G1 X20.705 Y20.630 E16.39247
G1 X21.250 Y21.250 F7800.000
G1 X13.750 Y21.250 E16.53113 F900.000
G1 X13.750 Y13.750 E16.66979
G1 X21.250 Y13.750 E16.80846
G1 X21.250 Y21.175 E16.94573
G1 X20.817 Y21.000 F7800.000
G1 X19.653 Y15.665 F7800.000
G1 X19.335 Y15.347 E16.95917 F1200.000
G1 X18.338 Y15.347 E16.98901
G1 X19.653 Y16.662 E17.04465
G1 X19.653 Y17.659 E17.07448
G1 X17.341 Y15.347 E17.17231
G1 X16.344 Y15.347 E17.20214
G1 X19.653 Y18.656 E17.34216
G1 X19.633 Y19.633 E17.37141
G1 X15.367 Y15.367 E17.55193
G1 X15.347 Y16.344 E17.58117
G1 X18.656 Y19.653 E17.72119
G1 X17.659 Y19.653 E17.75103
G1 X15.347 Y17.341 E17.84885
G1 X15.347 Y18.338 E17.87869
G1 X16.662 Y19.653 E17.93432
G1 X15.665 Y19.653 E17.96416
G1 X15.347 Y19.335 E17.97760
G1 X20.050 Y20.050 F7800.000
G1 X14.950 Y20.050 E18.11929 F900.000
G1 X14.950 Y14.950 E18.26098
G1 X20.050 Y14.950 E18.40268
G1 X20.050 Y19.975 E18.54228
G1 X20.705 Y20.705 F7800.000
G1 X14.295 Y20.705 E18.72034 F900.000
G1 X14.295 Y14.295 E18.89839
G1 X20.705 Y14.295 E19.07644
G1 X20.705 Y20.630 E19.25241
G1 X21.250 Y21.250 F7800.000
G1 X13.750 Y21.250 E19.39107 F900.000
G1 X13.750 Y13.750 E19.52973
G1 X21.250 Y13.750 E19.66840
G1 X21.250 Y21.175 E19.80567
G1 X20.817 Y21.000 F7800.000
G1 X19.335 Y19.653 F7800.000
G1 X19.653 Y19.335 E19.81911 F1200.000
G1 X19.653 Y18.338 E19.84895
G1 X18.338 Y19.653 E19.90458
G1 X17.341 Y19.653 E19.93442
G1 X19.653 Y17.341 E20.03225
G1 X19.653 Y16.344 E20.06208
G1 X16.344 Y19.653 E20.20210
G1 X15.367 Y19.633 E20.23135
G1 X19.633 Y15.367 E20.41187
G1 X18.656 Y15.347 E20.44111
G1 X15.347 Y18.656 E20.58113
G1 X15.347 Y17.659 E20.61096
G1 X17.659 Y15.347 E20.70879
G1 X16.662 Y15.347 E20.73863
G1 X15.347 Y16.662 E20.79426
G1 X15.347 Y15.665 E20.82410
G1 X15.665 Y15.347 E20.83754
G1 X20.050 Y20.050 F7800.000
G1 X14.950 Y20.050 E20.97923 F900.000
G1 X14.950 Y14.950 E21.12092
G1 X20.050 Y14.950 E21.26261
G1 X20.050 Y19.975 E21.40222
G1 X20.705 Y20.705 F7800.000
G1 X14.295 Y20.705 E21.58027 F900.000
G1 X14.295 Y14.295 E21.75833
G1 X20.705 Y14.295 E21.93638
G1 X20.705 Y20.630 E22.11235
G1 X21.250 Y21.250 F7800.000
G1 X13.750 Y21.250 E22.25101 F900.000
G1 X13.750 Y13.750 E22.38967
G1 X21.250 Y13.750 E22.52833
G1 X21.250 Y21.175 E22.66561
G1 X20.817 Y21.000 F7800.000
G1 X19.653 Y15.665 F7800.000
G1 X19.335 Y15.347 E22.67905 F1200.000
G1 X18.338 Y15.347 E22.70889
G1 X19.653 Y16.662 E22.76452
G1 X19.653 Y17.659 E22.79436
G1 X17.341 Y15.347 E22.89219
G1 X16.344 Y15.347 E22.92202
G1 X19.653 Y18.656 E23.06204
G1 X19.633 Y19.633 E23.09128
G1 X15.367 Y15.367 E23.27181
G1 X15.347 Y16.344 E23.30105
G1 X18.656 Y19.653 E23.44107
G1 X17.659 Y19.653 E23.47090
G1 X15.347 Y17.341 E23.56873
G1 X15.347 Y18.338 E23.59857
G1 X16.662 Y19.653 E23.65420
G1 X15.665 Y19.653 E23.68404
G1 X15.347 Y19.335 E23.69748
G1 X20.050 Y20.050 F7800.000
G1 X14.950 Y20.050 E23.83917 F900.000
G1 X14.950 Y14.950 E23.98086
G1 X20.050 Y14.950 E24.12255
G1 X20.050 Y19.975 E24.26216
G1 X20.705 Y20.705 F7800.000
G1 X14.295 Y20.705 E24.44021 F900.000
G1 X14.295 Y14.295 E24.61827
G1 X20.705 Y14.295 E24.79632
G1 X20.705 Y20.630 E24.97229
G1 X21.250 Y21.250 F7800.000
G1 X13.750 Y21.250 E25.11095 F900.000
G1 X13.750 Y13.750 E25.24961
G1 X21.250 Y13.750 E25.38827
G1 X21.250 Y21.175 E25.52555
G1 X20.817 Y21.000 F7800.000
G1 X19.335 Y19.653 F7800.000
G1 X19.653 Y19.335 E25.53899 F1200.000
G1 X19.653 Y18.338 E25.56883
G1 X18.338 Y19.653 E25.62446
G1 X17.341 Y19.653 E25.65430
G1 X19.653 Y17.341 E25.75213
G1 X19.653 Y16.344 E25.78196
G1 X16.344 Y19.653 E25.92198
G1 X15.367 Y19.633 E25.95122
G1 X19.633 Y15.367 E26.13174
G1 X18.656 Y15.347 E26.16099
G1 X15.347 Y18.656 E26.30101
G1 X15.347 Y17.659 E26.33084
G1 X17.659 Y15.347 E26.42867
G1 X16.662 Y15.347 E26.45851
G1 X15.347 Y16.662 E26.51414
G1 X15.347 Y15.665 E26.54398
G1 X15.665 Y15.347 E26.55742
G1 X20.050 Y20.050 F7800.000
G1 X14.950 Y20.050 E26.69911 F900.000
G1 X14.950 Y14.950 E26.84080
G1 X20.050 Y14.950 E26.98249
G1 X20.050 Y19.975 E27.12210
G1 X20.705 Y20.705 F7800.000
G1 X14.295 Y20.705 E27.30015 F900.000
G1 X14.295 Y14.295 E27.47821
G1 X20.705 Y14.295 E27.65626
G1 X20.705 Y20.630 E27.83223
G1 X21.250 Y21.250 F7800.000
G1 X13.750 Y21.250 E27.97089 F900.000
G1 X13.750 Y13.750 E28.10955
G1 X21.250 Y13.750 E28.24821
G1 X21.250 Y21.175 E28.38549
G1 X20.817 Y21.000 F7800.000
G1 X19.653 Y15.665 F7800.000
G1 X19.335 Y15.347 E28.39893 F1200.000
G1 X18.338 Y15.347 E28.42877
G1 X19.653 Y16.662 E28.48440
G1 X19.653 Y17.659 E28.51424
G1 X17.341 Y15.347 E28.61206
G1 X16.344 Y15.347 E28.64190
G1 X19.653 Y18.656 E28.78192
G1 X19.633 Y19.633 E28.81116
G1 X15.367 Y15.367 E28.99168
G1 X15.347 Y16.344 E29.02093
G1 X18.656 Y19.653 E29.16095
G1 X17.659 Y19.653 E29.19078
G1 X15.347 Y17.341 E29.28861
G1 X15.347 Y18.338 E29.31844
G1 X16.662 Y19.653 E29.37408
G1 X15.665 Y19.653 E29.40391
G1 X15.347 Y19.335 E29.41736
G1 X20.050 Y20.050 F7800.000
G1 X14.950 Y20.050 E29.55905 F900.000
G1 X14.950 Y14.950 E29.70074
G1 X20.050 Y14.950 E29.84243
G1 X20.050 Y19.975 E29.98204
G1 X20.705 Y20.705 F7800.000
G1 X14.295 Y20.705 E30.16009 F900.000
G1 X14.295 Y14.295 E30.33814
G1 X20.705 Y14.295 E30.51620
G1 X20.705 Y20.630 E30.69217
G1 X21.250 Y21.250 F7800.000
G1 X13.750 Y21.250 E30.83083 F900.000
G1 X13.750 Y13.750 E30.96949
G1 X21.250 Y13.750 E31.10815
G1 X21.250 Y21.175 E31.24543
G1 X20.817 Y21.000 F7800.000
G1 X19.335 Y19.653 F7800.000
G1 X19.653 Y19.335 E31.25887 F1200.000
G1 X19.653 Y18.338 E31.28870
G1 X18.338 Y19.653 E31.34434
G1 X17.341 Y19.653 E31.37418
G1 X19.653 Y17.341 E31.47200
G1 X19.653 Y16.344 E31.50184
G1 X16.344 Y19.653 E31.64186
G1 X15.367 Y19.633 E31.67110
G1 X19.633 Y15.367 E31.85162
G1 X18.656 Y15.347 E31.88086
G1 X15.347 Y18.656 E32.02089
G1 X15.347 Y17.659 E32.05072
G1 X17.659 Y15.347 E32.14855
G1 X16.662 Y15.347 E32.17838
G1 X15.347 Y16.662 E32.23402
G1 X15.347 Y15.665 E32.26385
G1 X15.665 Y15.347 E32.27730
G1 X20.050 Y20.050 F7800.000
G1 X14.950 Y20.050 E32.41899 F900.000
G1 X14.950 Y14.950 E32.56068
G1 X20.050 Y14.950 E32.70237
G1 X20.050 Y19.975 E32.84198
G1 X20.705 Y20.705 F7800.000
G1 X14.295 Y20.705 E33.02003 F900.000
G1 X14.295 Y14.295 E33.19808
G1 X20.705 Y14.295 E33.37614
G1 X20.705 Y20.630 E33.55210
G1 X21.250 Y21.250 F7800.000
G1 X13.750 Y21.250 E33.69077 F900.000
G1 X13.750 Y13.750 E33.82943
G1 X21.250 Y13.750 E33.96809
G1 X21.250 Y21.175 E34.10537
G1 X20.817 Y21.000 F7800.000
G1 X19.653 Y15.665 F7800.000
G1 X19.335 Y15.347 E34.11881 F1200.000
G1 X18.338 Y15.347 E34.14864
G1 X19.653 Y16.662 E34.20428
G1 X19.653 Y17.659 E34.23411
G1 X17.341 Y15.347 E34.33194
G1 X16.344 Y15.347 E34.36178
G1 X19.653 Y18.656 E34.50180
G1 X19.633 Y19.633 E34.53104
G1 X15.367 Y15.367 E34.71156
G1 X15.347 Y16.344 E34.74080
G1 X18.656 Y19.653 E34.88082
G1 X17.659 Y19.653 E34.91066
G1 X15.347 Y17.341 E35.00849
G1 X15.347 Y18.338 E35.03832
G1 X16.662 Y19.653 E35.09396
G1 X15.665 Y19.653 E35.12379
G1 X15.347 Y19.335 E35.13724
G1 X20.050 Y20.050 F7800.000
G1 X14.950 Y20.050 E35.27893 F900.000
G1 X14.950 Y14.950 E35.42062
G1 X20.050 Y14.950 E35.56231
G1 X20.050 Y19.975 E35.70192
G1 X20.705 Y20.705 F7800.000
G1 X14.295 Y20.705 E35.87997 F900.000
G1 X14.295 Y14.295 E36.05802
G1 X20.705 Y14.295 E36.23607
G1 X20.705 Y20.630 E36.41204
G1 X21.250 Y21.250 F7800.000
G1 X13.750 Y21.250 E36.55071 F900.000
G1 X13.750 Y13.750 E36.68937
G1 X21.250 Y13.750 E36.82803
G1 X21.250 Y21.175 E36.96530
G1 X20.817 Y21.000 F7800.000
G1 X19.335 Y19.653 F7800.000
G1 X19.653 Y19.335 E36.97875 F1200.000
G1 X19.653 Y18.338 E37.00858
G1 X18.338 Y19.653 E37.06422
G1 X17.341 Y19.653 E37.09405
G1 X19.653 Y17.341 E37.19188
G1 X19.653 Y16.344 E37.22172
G1 X16.344 Y19.653 E37.36174
G1 X15.367 Y19.633 E37.39098
G1 X19.633 Y15.367 E37.57150
G1 X18.656 Y15.347 E37.60074
G1 X15.347 Y18.656 E37.74076
G1 X15.347 Y17.659 E37.77060
G1 X17.659 Y15.347 E37.86843
G1 X16.662 Y15.347 E37.89826
G1 X15.347 Y16.662 E37.95390
G1 X15.347 Y15.665 E37.98373
G1 X15.665 Y15.347 E37.99717
G1 X20.050 Y20.050 F7800.000
G1 X14.950 Y20.050 E38.13887 F900.000
G1 X14.950 Y14.950 E38.28056
G1 X20.050 Y14.950 E38.42225
G1 X20.050 Y19.975 E38.56186
G1 X20.705 Y20.705 F7800.000
G1 X14.295 Y20.705 E38.73991 F900.000
G1 X14.295 Y14.295 E38.91796
G1 X20.705 Y14.295 E39.09601
G1 X20.705 Y20.630 E39.27198
G1 X21.250 Y21.250 F7800.000
G1 X13.750 Y21.250 E39.41064 F900.000
G1 X13.750 Y13.750 E39.54931
G1 X21.250 Y13.750 E39.68797
G1 X21.250 Y21.175 E39.82524
G1 X20.817 Y21.000 F7800.000
G1 X19.653 Y15.665 F7800.000
G1 X19.335 Y15.347 E39.83869 F1200.000
G1 X18.338 Y15.347 E39.86852
G1 X19.653 Y16.662 E39.92416
G1 X19.653 Y17.659 E39.95399
G1 X17.341 Y15.347 E40.05182
G1 X16.344 Y15.347 E40.08166
G1 X19.653 Y18.656 E40.22168
G1 X19.633 Y19.633 E40.25092
G1 X15.367 Y15.367 E40.43144
G1 X15.347 Y16.344 E40.46068
G1 X18.656 Y19.653 E40.60070
G1 X17.659 Y19.653 E40.63054
G1 X15.347 Y17.341 E40.72837
G1 X15.347 Y18.338 E40.75820
G1 X16.662 Y19.653 E40.81384
G1 X15.665 Y19.653 E40.84367
G1 X15.347 Y19.335 E40.85711
G1 X20.050 Y20.050 F7800.000
G1 X14.950 Y20.050 E40.99880 F900.000
G1 X14.950 Y14.950 E41.14050
G1 X20.050 Y14.950 E41.28219
G1 X20.050 Y19.975 E41.42180
G1 X20.705 Y20.705 F7800.000
G1 X14.295 Y20.705 E41.59985 F900.000
G1 X14.295 Y14.295 E41.77790
G1 X20.705 Y14.295 E41.95595
G1 X20.705 Y20.630 E42.13192
G1 X21.250 Y21.250 F7800.000
G1 X13.750 Y21.250 E42.27058 F900.000
G1 X13.750 Y13.750 E42.40925
G1 X21.250 Y13.750 E42.54791
G1 X21.250 Y21.175 E42.68518
G1 X20.817 Y21.000 F7800.000
G1 X19.335 Y19.653 F7800.000
G1 X19.653 Y19.335 E42.69863 F1200.000
G1 X19.653 Y18.338 E42.72846
G1 X18.338 Y19.653 E42.78410
G1 X17.341 Y19.653 E42.81393
G1 X19.653 Y17.341 E42.91176
G1 X19.653 Y16.344 E42.94159
G1 X16.344 Y19.653 E43.08162
G1 X15.367 Y19.633 E43.11086
G1 X19.633 Y15.367 E43.29138
G1 X18.656 Y15.347 E43.32062
G1 X15.347 Y18.656 E43.46064
G1 X15.347 Y17.659 E43.49048
G1 X17.659 Y15.347 E43.58830
G1 X16.662 Y15.347 E43.61814
G1 X15.347 Y16.662 E43.67377
G1 X15.347 Y15.665 E43.70361
G1 X15.665 Y15.347 E43.71705
G1 X20.050 Y20.050 F7800.000
G1 X14.950 Y20.050 E43.85874 F900.000
G1 X14.950 Y14.950 E44.00044
G1 X20.050 Y14.950 E44.14213
G1 X20.050 Y19.975 E44.28173
G1 X20.705 Y20.705 F7800.000
G1 X14.295 Y20.705 E44.45979 F900.000
G1 X14.295 Y14.295 E44.63784
G1 X20.705 Y14.295 E44.81589
G1 X20.705 Y20.630 E44.99186
G1 X21.250 Y21.250 F7800.000
G1 X13.750 Y21.250 E45.13052 F900.000
G1 X13.750 Y13.750 E45.26918
G1 X21.250 Y13.750 E45.40785
G1 X21.250 Y21.175 E45.54512
G1 X20.817 Y21.000 F7800.000
G1 X19.653 Y15.665 F7800.000
G1 X19.335 Y15.347 E45.55857 F1200.000
G1 X18.338 Y15.347 E45.58840
G1 X19.653 Y16.662 E45.64404
G1 X19.653 Y17.659 E45.67387
G1 X17.341 Y15.347 E45.77170
G1 X16.344 Y15.347 E45.80153
G1 X19.653 Y18.656 E45.94155
